!!!OTL: Der Nachtjaeger
!!!OTL-incipit:Es blies ein Jaeger wohl in sein Horn, ju he deredere
!!!ARE: Europa, Mitteleuropa, Deutschland (), Sachsen - Anhalt
!!!YOR: 6, S. 163
!!    1957 gedruckt in Berlin
!!!SCT: Q0133A
!!!TXL: @@DE
!!!YEM: Copyright 1995, estate of Helmut Schaffrath.
**kern	**text
*ICvox	*
*M4/4	*
*met(c)	*
*k[f#]	*
*G:	*
{4d	1._Es
=1	=1
4g	blies
4g	ein
4g	Jä-
8aL	-ger
8aJ	wohl
=2	=2
4b	in
4a	sein
4g	Horn,
4gg	ju
=3	=3
8ddL	he
8ddJ	de-
8ddL	-re-
8ddJ	-de-
4dd}	-re
{(8ggL	und
8ddJ)	.
=4	=4
8ddL	al-
8ccJ	-les,
8ccL	was
8ccJ	er
4a	blies,
(8ccL	das
8aJ)	.
=5	=5
4g	war
(8bL	ver-
8aJ)	.
4g}	-lorn.
{8ccL	Von
8bJ	der
=6	=6
8bL	lin-
8aJ	-ke
8aL	tan-
8aJ	-ke
8aL	tin-
8aJ	-ke
8ccL	tan-
8aJ	-ke
=7	=7
8gL	tre-
8gJ	-de-
8bL	-re
8aJ	de-
4g	-re,
8bL	tre-
8aJ	-de-
=8	=8
4g	-re,
8bL	(tre-
8aJ	-de
4g}	re).
==	==
!!!AGN: Ballade, Jagd, Flucht, Vergewaltigung, Tod
!! Anhaengsel an der ersten Zeile. Dritte Zile = Refrain auf
!!    sinnfreie Silben. Eingeklammerte Toene kodiert.
!!!ONB: ESAC (Essen Associative Code) Database: BALLADE
!!!AMT: simple quadruple
!!!AIN: vox
!!!EED: Helmut Schaffrath
!!!EEV: 1.0
!!@@COMMENT:"Weber-Kellermann
!!S. 465 f. Nr. 549."
!!@@END:
!!!source: Deutsche Volkslieder mit ihren Melodien Balladen. Herausgegeben vom Deutschen Volksliedarchiv. Sechster Band. Freiburg/Breisgau 1976.
!!!page: 163
!!!ENC: Anna Maria Matuszewska
!!!EEV: 2025/03/06
*-	*-
